src/core/icon/svg/warning-line.svg

<svg width="24px" height="24px"><path d="M12.866,2.99999996 L22.392,19.5 C22.5706306,19.8093972 22.570633,20.1905896 22.3920064,20.499989 C22.2133798,20.8093885 21.8832611,21 21.526,21 L2.47399996,21 C2.11673891,21 1.7866202,20.8093885 1.60799361,20.499989 C1.42936701,20.1905896 1.42936943,19.8093972 1.60799996,19.5 L11.134,2.99999996 C11.3126394,2.69062368 11.6427526,2.50004396 12,2.50004396 C12.3572474,2.50004396 12.6873606,2.69062368 12.866,2.99999996 Z M4.20599997,19 L19.794,19 L12,5.49999997 L4.20599997,19 Z M11,16 L13,16 L13,18 L11,18 L11,16 Z M11,8.99999999 L13,8.99999999 L13,14 L11,14 L11,8.99999999 Z" fill="#000091"></path></svg>

<svg xmlns="http://www.w3.org/2000/svg" width="24" height="24" viewBox="0 0 24 24"><path d="m12.866 3 9.526 16.5a1 1 0 0 1-.866 1.5H2.474a1 1 0 0 1-.866-1.5L11.134 3a1 1 0 0 1 1.732 0Zm-8.66 16h15.588L12 5.5 4.206 19ZM11 16h2v2h-2v-2Zm0-7h2v5h-2V9Z"/></svg>
